src/assets/icons/social/instagram.svg

<svg width="36" height="38" viewBox="0 0 36 38" fill="none" xmlns="http://www.w3.org/2000/svg">
<ellipse cx="18" cy="18.9999" rx="18" ry="18.0036" fill="white"/>
<g clip-path="url(#clip0_202_337)">
<path d="M22.5 9.1189H13.5C11.0147 9.1189 9 11.1336 9 13.6189V22.6189C9 25.1042 11.0147 27.1189 13.5 27.1189H22.5C24.9853 27.1189 27 25.1042 27 22.6189V13.6189C27 11.1336 24.9853 9.1189 22.5 9.1189Z" stroke="#383638" stroke-width="2" stroke-linecap="round" stroke-linejoin="round"/>
<path d="M21.5986 17.5522C21.7096 18.3012 21.5817 19.0662 21.2329 19.7383C20.8842 20.4104 20.3324 20.9554 19.656 21.2959C18.9797 21.6363 18.2132 21.7548 17.4656 21.6345C16.718 21.5142 16.0273 21.1612 15.4919 20.6258C14.9565 20.0904 14.6035 19.3998 14.4832 18.6522C14.3629 17.9046 14.4814 17.1381 14.8219 16.4617C15.1623 15.7853 15.7073 15.2335 16.3795 14.8848C17.0516 14.536 17.8165 14.4081 18.5656 14.5192C19.3296 14.6325 20.0369 14.9885 20.5831 15.5346C21.1292 16.0808 21.4853 16.7881 21.5986 17.5522Z" stroke="#383638" stroke-width="2" stroke-linecap="round" stroke-linejoin="round"/>
<path d="M22.9492 13.1692H22.9582" stroke="#383638" stroke-width="2" stroke-linecap="round" stroke-linejoin="round"/>
</g>
<defs>
<clipPath id="clip0_202_337">
<rect width="21.6" height="21.6" fill="white" transform="translate(7.19922 7.31909)"/>
</clipPath>
</defs>
</svg>

<svg width="36" height="38" fill="none" xmlns="http://www.w3.org/2000/svg"><ellipse cx="18" cy="19" rx="18" ry="18.004" fill="#fff"/><g clip-path="url(#a)" stroke="#383638" stroke-width="2" stroke-linecap="round" stroke-linejoin="round"><path d="M22.5 9.119h-9a4.5 4.5 0 0 0-4.5 4.5v9a4.5 4.5 0 0 0 4.5 4.5h9a4.5 4.5 0 0 0 4.5-4.5v-9a4.5 4.5 0 0 0-4.5-4.5Z"/><path d="M21.599 17.552a3.6 3.6 0 1 1-7.123 1.056 3.6 3.6 0 0 1 7.123-1.056ZM22.95 13.17h.008"/></g><defs><clipPath id="a"><path fill="#fff" transform="translate(7.2 7.32)" d="M0 0h21.6v21.6H0z"/></clipPath></defs></svg>
